X:1
T:Paddy Clancy's
M:6/8
L:1/8
Q:80
C:Arranged by T. Tully
S:Jig
K:HP
f | \
afd{g}edB | \
{g}dcB{g}AGA | \
d{e}d{c}de{g}e{A}e |
f{g}Af{g}efgafd{g}edB | \
{g}dcB{g}AGA | \
d{e}d{c}de{g}e{A}e |
{g}fdc{g}d2 :| \
e | \
f{g}f{e}fgAg | \
{a}Af{e}f{g}fed |
f{g}f{e}fg{a}fg | \
afd{gef}e2df{g}AfgAg | \
{a}Af{e}f{g}fed |
f{g}f{e}f{g}ede | \
{g}fdc{g}d2 :|
